X:1
T:Gee, 87.87 D
T:Samuel Gee, 1894
T:Gee, 87.87 D
T:Public Domain
C:Samuel Gee, 1894
Z:Public Domain
%%score ( 1 2 ) ( 3 4 )
L:1/8
M:4/4
K:A
V:1 treble 
V:2 treble 
V:3 bass 
V:4 bass 
V:1
 [Ec]2 [Ee]2 [CA]2 [Cc]2 | [DF]2 [EA]2 [Ed]2 [Ec]2 | [EB]2 [EB]2 [Ec]2 (FE) | [Dd]2 (cB) [Ec]4 | %4
 [Ge]2 [F^d]2 [=F=d]2 [Ec]2 | [FB]2 (C^D) (GF) E2 | [Fd]2 [Ec]2 [DB]2 [CA]2 | [DG]2 FE [CA]4 | %8
 E2 z C (DC) [B,E]2 | [CA]2 [EG]2 (ED) [CA]2 | [^DF]2 [EB]2 [FA]2 [EG]2 | [EG]2 [^DF]2 E4 | %12
 [Ee]3 [Ee] [Ee]2 [Ee]2 | [Ee]2 [EG]2 [EA]2 (FG) | [Ac]2 (A=G) [DF]2 [Fd]2 | (E2 C2 D2) [CB]2 | %16
 [CA]8 |] %17
V:2
 x8 | x8 | x6 c2 | x2 E2 x4 | x8 | x2 A2 E2 E2 | x8 | x2 D2 x4 | B,3 E2 E2 x | x4 A2 x2 | x8 | %11
 x4 E4 | x8 | x6 B2 | x2 E2 x4 | A6 x2 | x8 |] %17
V:3
 [A,C]2 [G,B,]2 [F,A,]2 [E,G,]2 | [D,A,]2 [C,A,]2 [B,,G,]2 [A,,A,]2 | %2
 [E,G,]2 [D,G,]2 [C,A,]2 [F,^A,]2 | [B,,B,]2 [E,G,]2 [A,,A,]4 | [E,B,]2 [F,A,]2 [G,B,]2 [A,C]2 | %5
 [D,D]2 [F,A,]2 (B,A,) [E,G,]2 | [D,A,]2 [A,,A,]2 [B,,F,]2 [F,A,]2 | [E,B,]2 (A,G,) [A,,A,]4 | %8
 E,2 z A, (B,A,) [E,G,]2 | [A,,A,]2 [A,,B,]2 (CB,) [A,,A,]2 | [A,B,]2 [G,B,]2 [^D,C]2 [E,B,]2 | %11
 B,,2 z A, [E,G,]4 | E,3 E, E,2 E,2 | [E,G,]2 [E,B,]2 [E,C]2 [E,D]2 | %14
 [A,E]2 [A,,C]2 [D,A,]2 [B,,D]2 | (C2 A,2 B,2) [E,G,]2 | A,8 |] %17
V:4
 x8 | x8 | x8 | x8 | x8 | x4 E,2 x2 | x8 | x2 E,2 x4 | G,3 (E,2 E,2) x | x4 A,,2 x2 | x8 | %11
 B,3 B,,2 x3 | E,3 E, E,2 E,2 | x8 | x8 | E,6 x2 | A,8 |] %17

